public/images/logos/auth_providers/apple.svg

<svg width="43" height="51" viewBox="0 0 43 51" fill="none" xmlns="http://www.w3.org/2000/svg">
<g clip-path="url(#clip0_219_24)">
<path d="M40.6202 38.4654C39.8663 40.2121 38.9732 41.8201 37.9391 43.2985C36.5299 45.3136 35.3757 46.7092 34.4855 47.4836C33.1072 48.7553 31.6293 49.4063 30.0474 49.4434C28.9118 49.4434 27.5416 49.1194 25.9475 48.4618C24.3482 47.8076 22.8782 47.4836 21.5342 47.4836C20.1247 47.4836 18.6127 47.8076 16.996 48.4618C15.3793 49.116 14.0713 49.4618 13.0734 49.4957C11.5567 49.5609 10.0447 48.8912 8.536 47.4836C7.5717 46.6413 6.3671 45.1967 4.924 43.1504C3.3751 40.9654 2.1013 38.4314 1.1037 35.5426C0.0352 32.4223 -0.5 29.401 -0.5 26.4754C-0.5 23.125 0.2219 20.235 1.6682 17.8131C2.8055 15.8672 4.3173 14.3332 6.2094 13.2068C8.1015 12.0804 10.1471 11.5058 12.3496 11.4692C13.5542 11.4692 15.1351 11.8432 17.0985 12.5772C19.0562 13.3148 20.3136 13.6883 20.8651 13.6883C21.2771 13.6883 22.6734 13.2512 25.042 12.3798C27.2804 11.5718 29.17 11.2372 30.7187 11.3692C34.9137 11.7092 38.0654 13.3672 40.1615 16.3548C36.4091 18.6339 34.5532 21.8272 34.5907 25.9231C34.6247 29.1133 35.7786 31.7678 38.0469 33.8757C39.0751 34.8543 40.2222 35.6106 41.5 36.1474C41.2233 36.9533 40.931 37.7246 40.6202 38.4654ZM30.9988 0.5008C30.9988 3.0011 30.0873 5.3353 28.2716 7.4971C26.08 10.0653 23.4292 11.5506 20.5545 11.3161C20.5184 11.0163 20.4976 10.7008 20.4976 10.3691C20.4976 7.9678 21.5392 5.3991 23.3903 3.2988C24.3143 2.235 25.4886 1.3508 26.9142 0.645C28.3365 -0.0497 29.6812 -0.4342 30.9462 -0.5C30.9832 -0.1652 30.9988 0.1692 30.9988 0.5008Z" fill="black"/>
</g>
<defs>
<clipPath id="clip0_219_24">
<rect width="43" height="51" fill="white"/>
</clipPath>
</defs>
</svg>

<svg xmlns="http://www.w3.org/2000/svg" width="43" height="51" fill="none"><g clip-path="url(#a)"><path fill="#000" d="M40.62 38.465a27.2 27.2 0 0 1-2.68 4.833c-1.41 2.016-2.564 3.411-3.454 4.186q-2.067 1.905-4.439 1.96c-1.135 0-2.505-.325-4.1-.982q-2.398-.98-4.413-.978-2.114-.002-4.538.978-2.426.982-3.923 1.034-2.274.098-4.537-2.012-1.447-1.264-3.612-4.334-2.324-3.276-3.82-7.607Q-.5 30.863-.5 26.475c0-3.35.722-6.24 2.168-8.662q1.706-2.918 4.541-4.606a12.2 12.2 0 0 1 6.14-1.738c1.205 0 2.786.374 4.75 1.108q2.938 1.109 3.766 1.111c.412 0 1.808-.437 4.177-1.308q3.355-1.21 5.677-1.01c4.195.34 7.346 1.997 9.442 4.985-3.752 2.279-5.608 5.472-5.57 9.568.034 3.19 1.188 5.845 3.456 7.953a11.3 11.3 0 0 0 3.453 2.271 37 37 0 0 1-.88 2.318M31 .501c0 2.5-.912 4.834-2.727 6.996-2.192 2.568-4.843 4.054-7.717 3.82a8 8 0 0 1-.057-.948c0-2.401 1.041-4.97 2.892-7.07q1.386-1.595 3.524-2.654C28.336-.05 29.681-.435 30.946-.5Q31 .004 31 .5"/></g><defs><clipPath id="a"><path fill="#fff" d="M0 0h43v51H0z"/></clipPath></defs></svg>
